X: 2370
M: C
L: 1/8
K: D
(uAd) |\
fgfe dcdB | ABAG FGFE |\
gagf efed | cdcB ABAG |\
|: (ucd) |\
eAAA fAAA | gAfA eAAA |\
dFAd cEAc | dcdf eagf |\
eAAA fAAA | gAfA eAAA |\
dFAd cEAc | d2f2d2 :|


